X:4450
T:Drunken Landlady
R:Reel
D:Mary Bergin: Feadoga Stain.
Z:id:hn-reel-66
M:4/4
L:1/8
Q:1/4=200
K:D
|:BE~E2 BAFA|BE~E2 BAFG|ABAF D2FD|FGAd BAFA|
BE~E2 BAFA|BAcA BAFA|A2Bc dfec|dBAF E2FA:|
|:Bee[df] ~e2de|~f2df efdB|ABAF D2FD|FA~A2 BAFA|
Bee[df] ~e2de|~f2df efdB|A2Bc dfec|dBAF E2AF:|
